X:2
T:Willow's
R:Jig
C:Rick Mohr
L:1/8
M:6/8
K:DMixolydian
r: 32
B|"C"cBA "D"dAB|"C"cBA "D"d2B|"C"cBA "G"GFG|"D"A2D DAB|
"C"cBA "D"dAB|"C"cde "D"fed|"C"cAG "Em"EGE|"D"D3 D2:|
e|"D"f2e def|aba afd|"C"ece gag|ecc cde|
"D"f2e def|aba afd|"C"ece "G"gfe|"D"d3 d2:|
